X:1
T:Title
%%score [ ( 1 2 ) ( 3 4 ) ]
L:1/8
Q:1/4=90
M:12/8
K:Bb
V:1 treble-8 nm="Tenor I/II"
V:2 treble-8 
V:3 bass nm="Bass I/II"
V:4 bass 
V:1
 x12 | z2 d d2 d d2 d d2 d | e3 e3 f6 | z2 =e e2 e e2 e e2 e | f3 =e3 _e3 c3 | f3 =e3 _e3 d3 | %6
w: |(I care) * * * * *|* (that shine)|(I dare) * * * * *|||
 !fermata!g6 !fermata!f6 | =e e2- eee !fermata!_e3- !fermata!e2 d | d3 ^c3 d6 |] %9
w: ||* (Is mine)|
V:2
 z6 z3 z z x | B3- B2 F F2 F G2 _A | G6- G3- G2 G | c3- c2 G G2 G A2 B | A3 B3 c3 F3 | %5
w: |care * not for the stars that|shine, _ _ I|dare * not hope to e'er be|thine, be thine, I|
 F3 G3 A3 B3 | !fermata!e6 !fermata!d6 | c G2- GAB !fermata!c3- !fermata!c2 B | B12 |] %9
w: on- ly know I|love you!|Love me, _ and the world _ is|mine!|
V:3
 z12 | z2 F, F,2 F, _A,2 A, G,2 F, | B,3 B,3 =B,6 | z2 B, B,2 B, B,2 B, C2 G, | C3 G,3 A,3 A,3 | %5
 B,3 B,3 F,3 F,3 | !fermata!B,6 !fermata!=B,6 | G, B,2- B,CG, !fermata!B,3 !fermata!A,2 F, | %8
 F,3 _G,3 F,6 |] %9
V:4
 x12 | x2 B,, B,,2 B,, B,,2 B,, B,,2 B,, | E,3 E,3 D,6 | x2 C, C,2 C, C,2 C, C,2 C, | %4
 F,3 C,3 F,,3 _E,3 | D,3 ^C,3 =C,3 B,,3 | !fermata!E,6 !fermata!G,6 | %7
 C, C,2- C,C,C, (!fermata!_G,3 !fermata!F,2) B,, | B,,12 |] %9

